X: 638
M:3/2
L:1/8
K:E
E4G2B2egbg | edcB AGFE^D2B,2 | E4G2B2egbg | egfg Bedfe4 ||
egbg edcB=c2A2 | =ceag fed^cB2G2 | Bdgf edef gabg | gfeg fedfe4 ||
e2E2=F2E2c2E2 | bfge fdeB =c2B2 | e2E2=F2E2=c2F2 | cBcA GEGBe4 ||

